logo/jetbrains-space-icon.svg

<?xml version="1.0" encoding="UTF-8"?>
<svg width="256px" height="256px" viewBox="0 0 256 256" version="1.1" xmlns="http://www.w3.org/2000/svg" preserveAspectRatio="xMidYMid">
    <title>Space</title>
    <defs>
        <linearGradient x1="45.0824163%" y1="-1.34304614%" x2="55.5220482%" y2="97.6099761%" id="spaceLinearGradient-1">
            <stop stop-color="#FCF84A" offset="0%"></stop>
            <stop stop-color="#ABE682" offset="32%"></stop>
            <stop stop-color="#36CDD2" offset="79%"></stop>
            <stop stop-color="#07C3F2" offset="100%"></stop>
        </linearGradient>
        <linearGradient x1="-2.94159918%" y1="38.9923346%" x2="100.445236%" y2="62.1053821%" id="spaceLinearGradient-2">
            <stop stop-color="#3BEA62" offset="0%"></stop>
            <stop stop-color="#087CFA" offset="100%"></stop>
        </linearGradient>
        <linearGradient x1="-3.30779496%" y1="71.8068763%" x2="111.745094%" y2="15.4620075%" id="spaceLinearGradient-3">
            <stop stop-color="#009AE5" offset="0%"></stop>
            <stop stop-color="#0490DD" offset="18%"></stop>
            <stop stop-color="#1073C6" offset="49%"></stop>
            <stop stop-color="#2346A1" offset="89%"></stop>
            <stop stop-color="#293896" offset="100%"></stop>
        </linearGradient>
    </defs>
    <g>
        <path d="M46.360458,255.99099 C137.434811,248.012902 217.341572,192.070363 256,109.222831 C208.119528,40.7992121 129.872913,0.0324961365 46.360458,1.54095168e-05 C38.9196537,1.54095168e-05 31.4447173,0.329959332 23.9356487,0.989847177 C-14.6764568,83.8934929 -6.12822306,181.09875 46.360458,255.99099 L46.360458,255.99099 Z" fill="url(#spaceLinearGradient-1)"></path>
        <path d="M24.2087057,1.02397931 C78.7004741,23.174229 125.519479,60.7860504 158.89409,109.222831 L256,109.222831 C208.262655,40.7605274 130.061592,-0.0289436035 46.599383,0 C39.1585786,0 31.6950196,0.341336709 24.2087057,1.02397931 L24.2087057,1.02397931 Z" fill="url(#spaceLinearGradient-2)"></path>
        <path d="M158.89409,109.222831 C147.18677,186.60037 46.2580617,255.99099 46.2580617,255.99099 C138.039359,247.321429 218.488789,192.3687 256,109.222831 L158.89409,109.222831 Z" fill="url(#spaceLinearGradient-3)"></path>
    </g>
</svg>

<svg viewBox="0 0 256 256" xmlns="http://www.w3.org/2000/svg"><defs><linearGradient id="a" x1="45.082%" x2="55.522%" y1="-1.344%" y2="97.609%"><stop offset="0%" stop-color="#FCF84A"/><stop offset="32%" stop-color="#ABE682"/><stop offset="79%" stop-color="#36CDD2"/><stop offset="100%" stop-color="#07C3F2"/></linearGradient><linearGradient id="b" x1="-2.942%" x2="100.445%" y1="38.992%" y2="62.105%"><stop offset="0%" stop-color="#3BEA62"/><stop offset="100%" stop-color="#087CFA"/></linearGradient><linearGradient id="c" x1="-3.308%" x2="111.745%" y1="71.806%" y2="15.462%"><stop offset="0%" stop-color="#009AE5"/><stop offset="18%" stop-color="#0490DD"/><stop offset="49%" stop-color="#1073C6"/><stop offset="89%" stop-color="#2346A1"/><stop offset="100%" stop-color="#293896"/></linearGradient></defs><path fill="url(#a)" d="M46.36 255.99c91.07-7.98 170.98-63.93 209.63-146.77C208.1 40.79 129.86.02 46.35-.01c-7.45 0-14.92.32-22.43.98 -38.62 82.9-30.07 180.1 22.42 255v0Z"/><path fill="url(#b)" d="M24.2 1.02c54.49 22.15 101.31 59.76 134.68 108.19h97.1C208.24 40.74 130.04-.05 46.57-.02c-7.45 0-14.91.34-22.4 1.02v0Z"/><path fill="url(#c)" d="M158.89 109.22C147.18 186.59 46.25 255.98 46.25 255.98c91.78-8.67 172.23-63.63 209.74-146.77h-97.11Z"/></svg>
